X:1
T:Ave Maria - Clemens non Papa
T:#
%%score { 1 | 2 } 3 4 5
L:1/8
Q:1/4=70
M:none
K:Eb
V:1 treble nm="Soprano I" snm="S"
V:2 treble 
V:3 treble nm="Alto" snm="A"
V:4 treble-8 nm="Tenor" snm="T"
V:5 bass nm="Bass" snm="B"
V:1
"^Ave Maria" z8 x2 |[M:4/4][Q:1/4=100] z8 | z8 | z8 | z8 | %5
w: |||||
"^Jacobus Clemens non Papa\n(1510-1556)" c8 | %6
w: gra-|
[M:4/4][Q:1/4=100][Q:1/4=100][Q:1/4=100][Q:1/4=100] B4 A4 | (B4 c3 d | ef e3 c d2- | dc c4 B2) | %10
w: ti- a|ple\- * *|||
 c8 || z8 | c4 B4 | (A3 B cd e2- | edBc d2) (c2- | cB B4 A2) | B8 | B8 | B4 c4 | (B4 G2 B2-) | %20
w: na,||Do- mi-|nus * * * *|* * * * * te\-||cum,|be-|ne- di-|cta * *|
 (BA A4 G2) | A2 c2 (A2 B2) | (_d4 c2) B2 | c2 A2 G2 A2 | (B2 A2 GF F2- | F2) =E2 F2 c2 | %26
w: |tu, be- ne\- *|di\- * cta|tu in mu- li-|e\- * * * *|* ri- bus, in|
 c2 c2 _d2 B2 | c4 z2 c2- | c2 B4 A2 | G4 z2 c2- | c2 (B4 A2- | AG F4) =E2 | F4 z4 | z2 c4 (B2- | %34
w: mu- li- e- ri-|bus, al\-|* le- lu-|ia, al\-|* le- *|* * * lu-|ia,|al- le\-|
 B2 A2 G2) F2 | c4 z4 | z2[Q:1/4=98] (c3[Q:1/4=95] B[Q:1/4=94]A[Q:1/4=93]G | %37
w: * * * lu-|ia,|al\- * * *|
[Q:1/4=91] A2)[Q:1/4=89] B2[Q:1/4=86] _d4 |[Q:1/4=84] c8 |] %39
w: * le- lu-|ia.|
V:2
 AEF (F c_d) c2 x2 |[M:4/4] z8 | z8 | z4 c4- | c4 B4- | B2 (=AG A4) |[M:4/4] F2 (F3 G A2 | %7
w: A- ve Ma- ri\- * * a|||gra\-|* ti\-|* a * *|* ple\- * *|
 GABG A4 | G3 F E2 B2 | A4 G4) | G8 || c4 c2 B2 | (A3 G F2 G2) | (FGAF G4) | z2 G2 F2 A2 | %15
w: |||na,|Do- mi- nus|te\- * * *|cum, * * * *|Do- mi- nus|
 (G4 F2) (f2- | fedc d4) | G6 G2 | (F2 G2 E2) F2 | G8 | z4 z2 B2 | c2 (G2 c2 B2- | BA A4) G2 | %23
w: te\- * cum,||be- ne-|di\- * * cta|tu,|be-|ne- di\- * *|* * * cta|
 A2 c2 B2 c2 | d2 c2 (B4- | B2 AG A2) A2 | G2 A2 (BAGF) | G4 F4 | z6 c2- | c2 (B4 A2 | G2) F2 c4 | %31
w: tu in mu- li-|e- ri- bus,|* * * * in|mu- li- e\- * * *|ri- bus,|al\-|* le\- *|* lu- ia,|
 z8 | z2 A4 G2- | G2 A2 G4 | z2 c4 (B2- | B2 A3 G F2- | F2) =E2 F4- | F8 | F8 |] %39
w: |al- le\-|* lu- ia,|al- le\-||* lu- ia.|||
V:3
 z8 x2 |[M:4/4] z4 G4- | G4 F4 | D2 (E4 DC | E2 F2 G4) | F4 z2 C2 |[M:4/4] _D4 C2 (F2- | %7
w: |gra\-|* ti-|a ple\- * *||na, gra-|ti- a ple\-|
 FD E2 A,2) C2 | (CDEF G3) F | E2 F2 D4 | C8 || z4 F4- | F2 E2 D2 E2 | (C2 B,A,) E4 | z2 D3 E F2 | %15
w: * * * * na,|gra\- * * * * ti-|a ple- *|na,|Do\-|* mi- nus te\-|* * * cum,|Do- mi- nus|
 (D2 E2 C4) | B,8 | B,4 E2 (E2 | D2) E2 C4 | z2 (E3 D B,2) | E4 (F2 E2- | E2 C2) (E4 | F4 E4) | %23
w: te\- * *|cum,|be- ne- di\-|* cta tu,|be\- * *|ne- di\- *|* * cta||
 C4 z4 | z8 | z4 z2 F2 | =E2 F2 (_DC F2- | F2) =E2 F4 | z2 G4 F2 | E4 (D2 C2) | z2 F2 E2 C2 | %31
w: tu||in|mu- li- e\- * *|* ri- bus,|al- le-|lu- ia, *|al- le- *|
 _D4 C4- | C4 z2 G2- | G2 F2 E4 | (D2 C2) z2 F2 | (E2 C2) _D4 | C4 (A,3 B, | C2) (_D3 C) (B,2- | %38
w: lu- ia,|* al\-|* le- lu-|ia, * al-|le\- * lu-|ia, al\- *|* le\- * lu\-|
 B,2 =A,G,) A,4 |] %39
w: * * * ia.|
V:4
 z8 x2 |[M:4/4] c8 | B4 A2 (c2- | c2 B2 c2 e2- | e2 dc d2 e2) | c4 z2 F2- | %6
w: |gra-|ti- a ple\-|||na, gra\-|
[M:4/4][K:treble-8] (FEFG AB c2- | c2) B2 f4 | (e3 d c2 B2 | c2 A2 B3 c/d/ | e2 c2) G4 || z8 | z8 | %13
w: |* ti- a|ple\- * * *||* * na,|||
 c8 | B6 A2 | (B2 G2 A4) | F8 | z8 | z8 | B4 B4 | c4 B4 | A4 z2 E2 | A2 F2 (GE) (e2- | %23
w: Do-|mi- nus|te\- * *|cum,|||be- ne-|di- cta|tu, be-|ne- di- cta * tu|
 e2 dc e3) d | B2 c2 _d4 | B4 c2 F2 | c2 F2 B2 _d2 | c2 G2 (AGAB | c2 d2) e2 c2 | z2 g4 f2 | %30
w: * * * * in|mu- li- e-|ri- bus, in|mu- li- e- ri-|bus, al- le\- * * *|* * lu- ia,|al- le-|
 (e2 d2 c3 B | A2 B2) G4 | (FGAB c2) d2 | e2 c2 z2 g2- | g2 f2 (e2 d2 | c3 B A2 B2 | G4) F4- | F8 | %38
w: lu\- * * *|* * ia,|al\- * * * * le-|lu- ia, al\-|* le- lu\- *||* ia.||
 F8 |] %39
w: |
V:5
 z8 x2 |[M:4/4] C,8 | E,4 F,4 | (G,4 A,4- | A,4 G,2 E,2 | F,8) |[M:4/4] B,,4 (F,4 | G,4 F,3) E, | %8
w: |gra-|ti- a|ple\- *|||na, gra\-|* * ti-|
 C,6 (G,2 | A,2 F,2 G,4) | C,8 || C4 A,2 B,2 | (F,2 A,2 B,2 E,2) | F,4 C,4 | G,3 A, (B,2 F,2) | %15
w: a ple\-||na,|Do- mi- nus|te\- * * *|* cum,|Do- mi- nus *|
 (G,2 E,2 F,4) | B,,8 | E,4 (E,F,G,A, | B,2) G,2 A,4 | E,4 z2 E,2- | E,2 C,2 _D,2 E,2 | %21
w: te\- * *|cum,|be- ne\- * * *|* di- cta|tu, be\-|* ne- di- cta|
 A,,2 A,4 G,2 | F,2 _D,2 E,4 | A,,4 z2 A,2 | G,2 A,2 (B,A,G,F,) | G,4 F,4 | z8 | z2 C,2 (F,3 G, | %28
w: tu, be- ne-|di- * cta|tu in|mu- li- e\- * * *|ri- bus,||al- le\- *|
 A,2) G,2 E,2 F,2 | (C,D,E,F, G,E,) F,2 | C,2 D,2 E,2 (F,2- | F,2 B,,2) C,4 | z2 F,2 A,2 G,2 | %33
w: * lu- ia, al-|le\- * * * * * lu-|ia, al- le- lu\-|* * ia,|al- le- lu-|
 E,2 F,2 (C,D,E,F, | G,E,) F,2 C,2 D,2 | E,2 (F,4 B,,2) | C,4 z2 F,2- | F,2 B,,2 B,,4 | F,8 |] %39
w: ia, al- le\- * * *|* * lu- ia, al-|le- lu\- *|ia, al\-|* le- lu-|ia.|

